X: 6127
T: Captain Kelly
R: reel
M: 4/4
K: Dmajor
|:DFEF D2(dB)|AFDF E(B,B,2)|DFEF D2(dB)|AFEG (FD) D2|
DFEF D2(dB)|AFDF E(B,B,2)|DFEF D2(dB)|AFEG (FD) D2||
d2(fd) edfd|BdAd BdAc|d2(fd) edfd|Bdce d2A2|
d2({e}dc) dfed|cAeA fAeA|decd BcAc|1 ,2 (3(Bcd) (ce) dBAF:|["Last time" (3(Bcd) (ce) d2d2||

